material/.icons/material/signal-off.svg

<svg xmlns="http://www.w3.org/2000/svg" viewBox="0 0 24 24"><path d="M18 3v13.18l3 3V3h-3M4.28 5L3 6.27 10.73 14H8v7h3v-6.73l2 2V21h3v-1.73L19.73 23 21 21.72 4.28 5M13 9v2.18l3 3V9h-3M3 18v3h3v-3H3z"/></svg>

<?xml version="1.0" encoding="UTF-8"?><!DOCTYPE svg PUBLIC "-//W3C//DTD SVG 1.1//EN" "http://www.w3.org/Graphics/SVG/1.1/DTD/svg11.dtd"><svg xmlns="http://www.w3.org/2000/svg" xmlns:xlink="http://www.w3.org/1999/xlink" version="1.1" id="mdi-signal-off" width="24" height="24" viewBox="0 0 24 24"><path d="M18,3V16.18L21,19.18V3H18M4.28,5L3,6.27L10.73,14H8V21H11V14.27L13,16.27V21H16V19.27L19.73,23L21,21.72L4.28,5M13,9V11.18L16,14.18V9H13M3,18V21H6V18H3Z" /></svg>
